star-plus-outline.svg

<svg fill="currentColor" viewBox="0 0 24 24"><path d="m5.8 21 1.6-7L2 9.2l7.2-.6L12 2l2.8 6.6 7.2.6-3.2 2.8H18c-.7 0-1.4.1-2.1.4l2.2-1.9-4.4-.4-1.7-4-1.7 4-4.4.4 3.3 2.9-1 4.3 3.8-2.3.5.3c-.2.5-.4 1.1-.4 1.6zM17 14v3h-3v2h3v3h2v-3h3v-2h-3v-3z"/></svg>

<svg  viewBox="0 0 24 24" fill="currentColor"><path  d="M5.8 21L7.4 14L2 9.2L9.2 8.6L12 2L14.8 8.6L22 9.2L18.8 12H18C17.3 12 16.6 12.1 15.9 12.4L18.1 10.5L13.7 10.1L12 6.1L10.3 10.1L5.9 10.5L9.2 13.4L8.2 17.7L12 15.4L12.5 15.7C12.3 16.2 12.1 16.8 12.1 17.3L5.8 21M17 14V17H14V19H17V22H19V19H22V17H19V14H17Z"/></svg>
